assets/share.svg

<svg fill="none" height="18" viewBox="0 0 15 18" width="15" xmlns="http://www.w3.org/2000/svg"><g fill="#313131"><path d="m11.4674.2c-1.63052 0-2.96507 1.33454-2.96507 2.96512 0 .25476.03763.49873.09883.73509l-3.61372 2.46476c-.50362-.39432-1.13706-.63009-1.82232-.63009-1.63056 0-2.96512 1.33454-2.96512 2.96512 0 1.6306 1.33456 2.9651 2.96512 2.9651.68832 0 1.32378-.2387 1.82849-.6363l3.60755 2.4648c-.06217.2381-.09883.4844-.09883.7413 0 1.6305 1.33455 2.9651 2.96507 2.9651 1.6306 0 2.9652-1.3346 2.9652-2.9651 0-1.6306-1.3346-2.9651-2.9652-2.9651-.9453 0-1.79103.448-2.33499 1.1428l-3.36665-2.2918c.23306-.4229.36447-.90639.36447-1.4208 0-.51744-.13505-1.00235-.37064-1.42697l3.37282-2.29178c.54387.69692 1.38799 1.14898 2.33499 1.14898 1.6306 0 2.9652-1.33456 2.9652-2.96511 0-1.63058-1.3346-2.96512-2.9652-2.96512zm0 1.18605c.9896 0 1.7791.78949 1.7791 1.77907 0 .98957-.7895 1.77907-1.7791 1.77907-.9895 0-1.77903-.7895-1.77903-1.77907 0-.98958.78953-1.77907 1.77903-1.77907zm-8.30228 5.53488c.98958 0 1.77907.78949 1.77907 1.77907s-.78949 1.7791-1.77907 1.7791-1.77907-.78952-1.77907-1.7791.78949-1.77907 1.77907-1.77907zm8.30228 5.53487c.9896 0 1.7791.7895 1.7791 1.7791s-.7895 1.7791-1.7791 1.7791c-.9895 0-1.77903-.7895-1.77903-1.7791s.78953-1.7791 1.77903-1.7791z"/><path clip-rule="evenodd" d="m8.30233 3.16512c0-1.74104 1.4241-3.16512 3.16507-3.16512 1.7411 0 3.1652 1.42408 3.1652 3.16512 0 1.74101-1.4241 3.16511-3.1652 3.16511-.945 0-1.79296-.42129-2.37293-1.08139l-3.0757 2.08988c.19907.41283.31146.87355.31146 1.36128 0 .48424-.1092.94332-.30584 1.3549l3.07046 2.0901c.58055-.658 1.42985-1.0752 2.37255-1.0752 1.7411 0 3.1652 1.424 3.1652 3.1651 0 1.741-1.4241 3.1651-3.1652 3.1651-1.74097 0-3.16507-1.4241-3.16507-3.1651 0-.2262.02647-.4439.07226-.6539l-3.37553-2.3062c-.51788.3705-1.15148.5903-1.83394.5903-1.74102 0-3.16512-1.4241-3.16512-3.1651 0-1.74104 1.4241-3.16512 3.16512-3.16512.6792 0 1.3107.21699 1.82751.58446l3.38205-2.30675c-.04521-.20747-.07235-.42289-.07235-.64747zm.29883.73509c-.0612-.23636-.09883-.48033-.09883-.73509 0-1.63058 1.33455-2.96512 2.96507-2.96512 1.6306 0 2.9652 1.33454 2.9652 2.96512 0 1.63055-1.3346 2.96511-2.9652 2.96511-.947 0-1.79112-.45206-2.33499-1.14898l-3.37282 2.29178c.23559.42462.37064.90953.37064 1.42697 0 .51441-.13141.9979-.36447 1.4208l3.36665 2.2918c.54396-.6948 1.38969-1.1428 2.33499-1.1428 1.6306 0 2.9652 1.3345 2.9652 2.9651 0 1.6305-1.3346 2.9651-2.9652 2.9651-1.63052 0-2.96507-1.3346-2.96507-2.9651 0-.2569.03666-.5032.09883-.7413l-3.60755-2.4648c-.50471.3976-1.14017.6363-1.82849.6363-1.63056 0-2.96512-1.3345-2.96512-2.9651 0-1.63058 1.33456-2.96512 2.96512-2.96512.68526 0 1.3187.23577 1.82232.63009zm4.44534-.73509c0-.87912-.6999-1.57907-1.5791-1.57907-.8791 0-1.57903.69995-1.57903 1.57907s.69993 1.57907 1.57903 1.57907c.8792 0 1.5791-.69995 1.5791-1.57907zm-8.30231 5.53488c0-.87912-.69995-1.57907-1.57907-1.57907s-1.57907.69995-1.57907 1.57907.69995 1.5791 1.57907 1.5791 1.57907-.69998 1.57907-1.5791zm8.30231 5.5349c0-.8791-.6999-1.5791-1.5791-1.5791-.8791 0-1.57903.7-1.57903 1.5791s.69993 1.5791 1.57903 1.5791c.8792 0 1.5791-.7 1.5791-1.5791zm.2-11.06978c0-.98958-.7895-1.77907-1.7791-1.77907-.9895 0-1.77903.78949-1.77903 1.77907 0 .98957.78953 1.77907 1.77903 1.77907.9896 0 1.7791-.7895 1.7791-1.77907zm-8.30231 5.53488c0-.98958-.78949-1.77907-1.77907-1.77907s-1.77907.78949-1.77907 1.77907.78949 1.7791 1.77907 1.7791 1.77907-.78952 1.77907-1.7791zm8.30231 5.5349c0-.9896-.7895-1.7791-1.7791-1.7791-.9895 0-1.77903.7895-1.77903 1.7791s.78953 1.7791 1.77903 1.7791c.9896 0 1.7791-.7895 1.7791-1.7791z" fill-rule="evenodd"/></g></svg>

<svg width="15" height="18" viewBox="0 0 15 18" fill="none" xmlns="http://www.w3.org/2000/svg">
<path d="M11.4674 0.2C9.83688 0.2 8.50233 1.53454 8.50233 3.16512C8.50233 3.41988 8.53996 3.66385 8.60116 3.90021L4.98744 6.36497C4.48382 5.97065 3.85038 5.73488 3.16512 5.73488C1.53456 5.73488 0.2 7.06942 0.2 8.7C0.2 10.3306 1.53456 11.6651 3.16512 11.6651C3.85344 11.6651 4.4889 11.4264 4.99361 11.0288L8.60116 13.4936C8.53899 13.7317 8.50233 13.978 8.50233 14.2349C8.50233 15.8654 9.83688 17.2 11.4674 17.2C13.098 17.2 14.4326 15.8654 14.4326 14.2349C14.4326 12.6043 13.098 11.2698 11.4674 11.2698C10.5221 11.2698 9.67637 11.7178 9.13241 12.4126L5.76576 10.1208C5.99882 9.6979 6.13023 9.21441 6.13023 8.7C6.13023 8.18256 5.99518 7.69765 5.75959 7.27303L9.13241 4.98125C9.67628 5.67817 10.5204 6.13023 11.4674 6.13023C13.098 6.13023 14.4326 4.79567 14.4326 3.16512C14.4326 1.53454 13.098 0.2 11.4674 0.2ZM11.4674 1.38605C12.457 1.38605 13.2465 2.17554 13.2465 3.16512C13.2465 4.15469 12.457 4.94419 11.4674 4.94419C10.4779 4.94419 9.68837 4.15469 9.68837 3.16512C9.68837 2.17554 10.4779 1.38605 11.4674 1.38605ZM3.16512 6.92093C4.1547 6.92093 4.94419 7.71042 4.94419 8.7C4.94419 9.68958 4.1547 10.4791 3.16512 10.4791C2.17554 10.4791 1.38605 9.68958 1.38605 8.7C1.38605 7.71042 2.17554 6.92093 3.16512 6.92093ZM11.4674 12.4558C12.457 12.4558 13.2465 13.2453 13.2465 14.2349C13.2465 15.2245 12.457 16.014 11.4674 16.014C10.4779 16.014 9.68837 15.2245 9.68837 14.2349C9.68837 13.2453 10.4779 12.4558 11.4674 12.4558Z" fill="#313131"/>
<path fill-rule="evenodd" clip-rule="evenodd" d="M8.30233 3.16512C8.30233 1.42408 9.72643 0 11.4674 0C13.2085 0 14.6326 1.42408 14.6326 3.16512C14.6326 4.90613 13.2085 6.33023 11.4674 6.33023C10.5224 6.33023 9.67444 5.90894 9.09447 5.24884L6.01877 7.33872C6.21784 7.75155 6.33023 8.21227 6.33023 8.7C6.33023 9.18424 6.22103 9.64332 6.02439 10.0549L9.09485 12.145C9.6754 11.487 10.5247 11.0698 11.4674 11.0698C13.2085 11.0698 14.6326 12.4938 14.6326 14.2349C14.6326 15.9759 13.2085 17.4 11.4674 17.4C9.72643 17.4 8.30233 15.9759 8.30233 14.2349C8.30233 14.0087 8.3288 13.791 8.37459 13.581L4.99906 11.2748C4.48118 11.6453 3.84758 11.8651 3.16512 11.8651C1.4241 11.8651 0 10.441 0 8.7C0 6.95896 1.4241 5.53488 3.16512 5.53488C3.84432 5.53488 4.47582 5.75187 4.99263 6.11934L8.37468 3.81259C8.32947 3.60512 8.30233 3.3897 8.30233 3.16512ZM8.60116 3.90021C8.53996 3.66385 8.50233 3.41988 8.50233 3.16512C8.50233 1.53454 9.83688 0.2 11.4674 0.2C13.098 0.2 14.4326 1.53454 14.4326 3.16512C14.4326 4.79567 13.098 6.13023 11.4674 6.13023C10.5204 6.13023 9.67628 5.67817 9.13241 4.98125L5.75959 7.27303C5.99518 7.69765 6.13023 8.18256 6.13023 8.7C6.13023 9.21441 5.99882 9.6979 5.76576 10.1208L9.13241 12.4126C9.67637 11.7178 10.5221 11.2698 11.4674 11.2698C13.098 11.2698 14.4326 12.6043 14.4326 14.2349C14.4326 15.8654 13.098 17.2 11.4674 17.2C9.83688 17.2 8.50233 15.8654 8.50233 14.2349C8.50233 13.978 8.53899 13.7317 8.60116 13.4936L4.99361 11.0288C4.4889 11.4264 3.85344 11.6651 3.16512 11.6651C1.53456 11.6651 0.2 10.3306 0.2 8.7C0.2 7.06942 1.53456 5.73488 3.16512 5.73488C3.85038 5.73488 4.48382 5.97065 4.98744 6.36497L8.60116 3.90021ZM13.0465 3.16512C13.0465 2.286 12.3466 1.58605 11.4674 1.58605C10.5883 1.58605 9.88837 2.286 9.88837 3.16512C9.88837 4.04424 10.5883 4.74419 11.4674 4.74419C12.3466 4.74419 13.0465 4.04424 13.0465 3.16512ZM4.74419 8.7C4.74419 7.82088 4.04424 7.12093 3.16512 7.12093C2.286 7.12093 1.58605 7.82088 1.58605 8.7C1.58605 9.57912 2.286 10.2791 3.16512 10.2791C4.04424 10.2791 4.74419 9.57912 4.74419 8.7ZM13.0465 14.2349C13.0465 13.3558 12.3466 12.6558 11.4674 12.6558C10.5883 12.6558 9.88837 13.3558 9.88837 14.2349C9.88837 15.114 10.5883 15.814 11.4674 15.814C12.3466 15.814 13.0465 15.114 13.0465 14.2349ZM13.2465 3.16512C13.2465 2.17554 12.457 1.38605 11.4674 1.38605C10.4779 1.38605 9.68837 2.17554 9.68837 3.16512C9.68837 4.15469 10.4779 4.94419 11.4674 4.94419C12.457 4.94419 13.2465 4.15469 13.2465 3.16512ZM4.94419 8.7C4.94419 7.71042 4.1547 6.92093 3.16512 6.92093C2.17554 6.92093 1.38605 7.71042 1.38605 8.7C1.38605 9.68958 2.17554 10.4791 3.16512 10.4791C4.1547 10.4791 4.94419 9.68958 4.94419 8.7ZM13.2465 14.2349C13.2465 13.2453 12.457 12.4558 11.4674 12.4558C10.4779 12.4558 9.68837 13.2453 9.68837 14.2349C9.68837 15.2245 10.4779 16.014 11.4674 16.014C12.457 16.014 13.2465 15.2245 13.2465 14.2349Z" fill="#313131"/>
</svg>
